src/assets/svg/kine_logo.svg

<?xml version="1.0" encoding="utf-8"?>
<svg version="1.0" width="650" height="650" viewbox="0 0 650 650" preserveAspectRatio="xMidYMid meet" xmlns="http://www.w3.org/2000/svg">
  <g transform="matrix(0.098853, 0, 0, -0.100366, -202.648669, 808.794812)" fill="currentColor" stroke="none">
    <path d="M3998 8006 c-233 -106 -593 -323 -721 -437 l-47 -41 0 -1027 c0 -1164 -9 -1052 85 -1066 168 -24 470 -127 678 -232 89 -44 303 -175 518 -316 328 -215 401 -259 552 -337 179 -93 320 -148 484 -189 219 -55 407 -71 598 -52 117 12 283 44 317 62 21 11 32 44 21 64 -5 8 -65 66 -134 128 -69 61 -274 247 -455 411 -181 165 -372 338 -424 385 -119 106 -120 108 -120 149 0 33 46 81 733 771 402 405 794 797 869 871 139 137 163 172 153 220 -10 44 -114 131 -417 348 -150 108 -180 124 -211 117 -13 -4 -517 -500 -1138 -1121 -631 -631 -1122 -1114 -1131 -1114 -17 0 -18 64 -18 1218 0 934 -3 1221 -12 1230 -21 21 -60 12 -180 -42z"/>
    <path d="M8073 5382 c-6 -4 -34 -47 -62 -96 -133 -229 -300 -443 -502 -642 -155 -152 -185 -179 -294 -261 -299 -225 -590 -360 -930 -430 -115 -23 -152 -26 -320 -26 -207 1 -346 19 -520 69 -328 93 -530 196 -1081 550 -291 187 -435 271 -585 343 -449 216 -883 254 -1307 115 -118 -38 -205 -79 -334 -154 -81 -48 -88 -54 -88 -83 0 -110 91 -524 117 -534 8 -3 71 22 141 55 320 154 630 201 962 146 245 -41 548 -167 820 -343 69 -44 202 -129 295 -188 94 -58 217 -137 275 -173 374 -238 735 -382 1080 -431 109 -15 371 -15 477 0 479 69 919 310 1323 727 178 184 351 407 440 569 18 33 43 71 56 85 34 38 65 251 80 553 6 114 5 140 -7 148 -17 11 -21 11 -36 1z"/>
    <path d="M2795 4024 c-150 -25 -387 -106 -457 -155 -26 -19 -27 -21 -13 -58 36 -104 318 -541 348 -541 5 0 49 13 98 30 192 64 374 87 554 71 149 -14 241 -33 375 -76 239 -76 410 -170 987 -541 259 -167 401 -245 581 -318 360 -148 744 -166 1088 -51 264 88 576 286 826 524 266 254 433 492 616 879 64 134 85 202 63 202 -6 0 -43 -44 -82 -97 -288 -392 -638 -690 -982 -837 -293 -125 -542 -173 -855 -163 -233 7 -394 39 -622 124 -248 93 -473 220 -1045 590 -393 254 -634 359 -953 414 -136 23 -401 25 -527 3z"/>
    <path d="M3160 2965 c-105 -19 -154 -37 -158 -57 -5 -25 105 -119 309 -266 242 -173 617 -358 896 -441 137 -40 373 -87 533 -106 153 -17 422 -20 555 -5 168 19 185 30 78 50 -217 41 -475 165 -854 412 -342 223 -538 318 -788 383 -167 43 -424 56 -571 30z"/>
  </g>
</svg>

<?xml version="1.0" encoding="UTF-8"?>
<svg xmlns="http://www.w3.org/2000/svg" version="1.1" width="1080" height="1080" viewBox="0 0 1080 1080">
	<g transform="matrix(1 0 0 1 540 540)" id="29ac3b03-4e71-43d4-8e6e-670fbb5a1d54"  >
		<rect style="stroke: none; stroke-width: 1; stroke-dasharray: none; stroke-linecap: butt; stroke-dashoffset: 0; stroke-linejoin: miter; stroke-miterlimit: 4; fill: rgb(255,255,255); fill-rule: nonzero; opacity: 1; visibility: hidden;" vector-effect="non-scaling-stroke"  x="-540" y="-540" rx="0" ry="0" width="1080" height="1080" />
	</g>
	<g transform="matrix(1 0 0 1 540 540)" id="8aa271f2-cc20-4dc8-a0c4-17f83d79e3bb"  >
	</g>
	<g transform="matrix(1 0 0 1 540 540)"  >
		<g style="" vector-effect="non-scaling-stroke"   >
			<g transform="matrix(0.1 0 0 -0.1 8.26 -111.46)"  >
				<path style="stroke: none; stroke-width: 1; stroke-dasharray: none; stroke-linecap: butt; stroke-dashoffset: 0; stroke-linejoin: miter; stroke-miterlimit: 4; fill: rgb(0,0,0); fill-rule: nonzero; opacity: 1;" vector-effect="non-scaling-stroke"  transform=" translate(-5168.38, -6179.9)" d="M 3998 8006 C 3765 7900 3405 7683 3277 7569 L 3230 7528 L 3230 6501 C 3230 5337 3221 5449 3315 5435 C 3483 5411 3785 5308 3993 5203 C 4082 5159 4296 5028 4511 4887 C 4839 4672 4912 4628 5063 4550 C 5242 4457 5383 4402 5547 4361 C 5766 4306 5954 4290 6145 4309 C 6262 4321 6428 4353 6462 4371 C 6483 4382 6494 4415 6483 4435 C 6478 4443 6418 4501 6349 4563 C 6280 4624 6075 4810 5894 4974 C 5713 5139 5522 5312 5470 5359 C 5351 5465 5350 5467 5350 5508 C 5350 5541 5396 5589 6083 6279 C 6485 6684 6877 7076 6952 7150 C 7091 7287 7115 7322 7105 7370 C 7095 7414 6991 7501 6688 7718 C 6538 7826 6508 7842 6477 7835 C 6464 7831 5960 7335 5339 6714 C 4708 6083 4217 5600 4208 5600 C 4191 5600 4190 5664 4190 6818 C 4190 7752 4187 8039 4178 8048 C 4157 8069 4118 8060 3998 8006 z" stroke-linecap="round" />
			</g>
			<g transform="matrix(0.1 0 0 -0.1 0 73.35)"  >
				<path style="stroke: none; stroke-width: 1; stroke-dasharray: none; stroke-linecap: butt; stroke-dashoffset: 0; stroke-linejoin: miter; stroke-miterlimit: 4; fill: rgb(0,0,0); fill-rule: nonzero; opacity: 1;" vector-effect="non-scaling-stroke"  transform=" translate(-5084.79, -4338.56)" d="M 8073 5382 C 8067 5378 8039 5335 8011 5286 C 7878 5057 7711 4843 7509 4644 C 7354 4492 7324 4465 7215 4383 C 6916 4158 6625 4023 6285 3953 C 6170 3930 6133 3927 5965 3927 C 5758 3928 5619 3946 5445 3996 C 5117 4089 4915 4192 4364 4546 C 4073 4733 3929 4817 3779 4889 C 3330 5105 2896 5143 2472 5004 C 2354 4966 2267 4925 2138 4850 C 2057 4802 2050 4796 2050 4767 C 2050 4657 2141 4243 2167 4233 C 2175 4230 2238 4255 2308 4288 C 2628 4442 2938 4489 3270 4434 C 3515 4393 3818 4267 4090 4091 C 4159 4047 4292 3962 4385 3903 C 4479 3845 4602 3766 4660 3730 C 5034 3492 5395 3348 5740 3299 C 5849 3284 6111 3284 6217 3299 C 6696 3368 7136 3609 7540 4026 C 7718 4210 7891 4433 7980 4595 C 7998 4628 8023 4666 8036 4680 C 8070 4718 8101 4931 8116 5233 C 8122 5347 8121 5373 8109 5381 C 8092 5392 8088 5392 8073 5382 z" stroke-linecap="round" />
			</g>
			<g transform="matrix(0.1 0 0 -0.1 0.79 190.15)"  >
				<path style="stroke: none; stroke-width: 1; stroke-dasharray: none; stroke-linecap: butt; stroke-dashoffset: 0; stroke-linejoin: miter; stroke-miterlimit: 4; fill: rgb(0,0,0); fill-rule: nonzero; opacity: 1;" vector-effect="non-scaling-stroke"  transform=" translate(-5092.74, -3174.8)" d="M 2795 4024 C 2645 3999 2408 3918 2338 3869 C 2312 3850 2311 3848 2325 3811 C 2361 3707 2643 3270 2673 3270 C 2678 3270 2722 3283 2771 3300 C 2963 3364 3145 3387 3325 3371 C 3474 3357 3566 3338 3700 3295 C 3939 3219 4110 3125 4687 2754 C 4946 2587 5088 2509 5268 2436 C 5628 2288 6012 2270 6356 2385 C 6620 2473 6932 2671 7182 2909 C 7448 3163 7615 3401 7798 3788 C 7862 3922 7883 3990 7861 3990 C 7855 3990 7818 3946 7779 3893 C 7491 3501 7141 3203 6797 3056 C 6504 2931 6255 2883 5942 2893 C 5709 2900 5548 2932 5320 3017 C 5072 3110 4847 3237 4275 3607 C 3882 3861 3641 3966 3322 4021 C 3186 4044 2921 4046 2795 4024 z" stroke-linecap="round" />
			</g>
			<g transform="matrix(0.1 0 0 -0.1 -85.39 254.93)"  >
				<path style="stroke: none; stroke-width: 1; stroke-dasharray: none; stroke-linecap: butt; stroke-dashoffset: 0; stroke-linejoin: miter; stroke-miterlimit: 4; fill: rgb(0,0,0); fill-rule: nonzero; opacity: 1;" vector-effect="non-scaling-stroke"  transform=" translate(-4221.03, -2529.33)" d="M 3160 2965 C 3055 2946 3006 2928 3002 2908 C 2997 2883 3107 2789 3311 2642 C 3553 2469 3928 2284 4207 2201 C 4344 2161 4580 2114 4740 2095 C 4893 2078 5162 2075 5295 2090 C 5463 2109 5480 2120 5373 2140 C 5156 2181 4898 2305 4519 2552 C 4177 2775 3981 2870 3731 2935 C 3564 2978 3307 2991 3160 2965 z" stroke-linecap="round" />
			</g>
		</g>
	</g>
</svg>
